X:1
T:Lucca, 88.87 D
T:Lucca, 88.87 D
T:Ira David Sankey, 1902
T:Public Domain Courtesy of the Cyber Hymnal™
C:Ira David Sankey, 1902
Z:Public Domain
Z:Courtesy of the Cyber Hymnal™
%%score 1 ( 2 3 )
L:1/8
Q:1/4=92
M:3/4
K:Bb
V:1 treble 
V:2 bass 
V:3 bass 
V:1
 [B,D]>[CE] | [DF]>[EG] [DF]2 [FB]2 | [EB]2 [EA]2 [A,C]>[B,D] | [CE]>[=B,D] [CE]2 [EG]2 | %4
 [DG]2 [DF]2 [B,D]>[CE] | [DF]>[EG] [DF]2 [Fd]2 | [Ec]2 [EG]2 [=Ec]>[GB] | [FA]>[F^G] [FA]2 [Ec]2 | %8
 [DB]4 [DB]>[Ec] | [Fd]>[Ge] [Fd]2 [FB]2 | [Fd]2 [Fc]2 [EA]>[DB] | [Fc]>[F=B] [Fc]2 [Fe]2 | %12
 [Fe]2 [Fd]2 [B,D]>[CE] | [DF]>[EG] [DF]2 [Fd]2 | [Ec]2 [EG]2 [=Ec]>[GB] | [FA]>[F^G] [FA]2 [Ec]2 | %16
 [DB]4 |] %17
V:2
 [B,,F,]>[B,,F,] | [B,,B,]>[B,,B,] [B,,B,]2 [D,B,]2 | [F,C]2 [F,C]2 F,>F, | F,>F, [F,A,]2 [F,A,]2 | %4
 [B,,B,]2 [B,,B,]2 [B,,F,]>[B,,F,] | [B,,B,]>[B,,B,] [B,,B,]2 [B,,B,]2 | %6
 [E,G,]2 [E,B,]2 [C,C]>[C,C] | [F,C]>[F,=B,] [F,C]2 [F,A,]2 | [B,,B,]4 [B,,F,]>[B,,F,] | %9
 [B,,B,]>[B,,B,] [B,,B,]2 [D,B,]2 | [F,B,]2 [F,A,]2 [F,C]>[F,B,] | [F,A,]>[F,^G,] [F,A,]2 [A,C]2 | %12
 [A,C]2 B,2 [B,,F,]>[B,,F,] | [B,,B,]>[B,,B,] [B,,B,]2 [B,,B,]2 | [E,G,]2 [E,B,]2 [C,C]>[C,C] | %15
 [F,C]>[F,=B,] [F,C]2 [F,A,]2 | [B,,B,]4 |] %17
V:3
 x2 | x6 | x4 F,>F, | F,>F, x4 | x6 | x6 | x6 | x6 | x6 | x6 | x6 | x6 | x2 B,2 x2 | x6 | x6 | x6 | %16
 x4 |] %17

